; Generated by Kiri:Moto 3.9.3
; Fri Oct 06 2023 14:49:01 GMT-0500 (Central Daylight Time)
; Bed left:-150 right:150 top:87.5 bottom:-87.5
; Bed type: fixed
; Target: internal
; --- process ---
; processName = default
; sliceHeight = 0.25
; sliceShells = 1
; sliceShellOrder = in-out
; sliceLayerStart = last
; sliceLayerStartX = 0
; sliceLayerStartY = 0
; sliceLineWidth = 0
; sliceFillGrow = 0
; sliceFillAngle = 45
; sliceFillWidth = 1
; sliceFillOverlap = 0.35
; sliceFillSparse = 0.25
; sliceFillRepeat = 1
; sliceFillRate = 0
; sliceSolidRate = 0
; sliceFillType = hex
; sliceSupportDensity = 0.1
; sliceSupportOffset = 1
; sliceSupportGap = 1
; sliceSupportSize = 5
; sliceSupportArea = 0.1
; sliceSupportSpan = 5
; sliceSupportGrow = 0
; sliceSupportExtra = 0
; sliceSupportAngle = 50
; sliceSupportNozzle = 0
; sliceSupportEnable = false
; sliceSupportOutline = true
; sliceSolidMinArea = 1
; sliceBottomLayers = 2
; sliceTopLayers = 2
; firstSliceHeight = 0.25
; firstLayerRate = 30
; firstLayerFillRate = 35
; firstLayerPrintMult = 1
; firstLayerLineMult = 1
; firstLayerYOffset = 0
; firstLayerNozzleTemp = 0
; firstLayerBedTemp = 0
; firstLayerBrim = 0
; firstLayerBrimIn = 0
; firstLayerBrimTrig = 0
; firstLayerBrimGap = 0
; firstLayerBeltLead = 3
; firstLayerBeltBump = 0
; firstLayerFanSpeed = 0
; firstLayerFlatten = 0
; outputRaft = false
; outputRaftSpacing = 0.2
; outputDraftShield = false
; outputTemp = 200
; outputBedTemp = 60
; outputFeedrate = 50
; outputFinishrate = 50
; outputSeekrate = 80
; outputShellMult = 1.25
; outputFillMult = 1.25
; outputSparseMult = 1.25
; outputFanSpeed = 255
; outputRetractDist = 1.5
; outputRetractSpeed = 40
; outputRetractWipe = 0
; outputRetractDwell = 20
; outputBrimCount = 2
; outputBrimOffset = 2
; outputShortPoly = 100
; outputMinSpeed = 10
; outputCoastDist = 0
; outputPurgeTower = 0
; outputBeltFirst = false
; outputAvoidGaps = true
; outputAlternating = false
; outputLayerRetract = false
; outputOriginCenter = true
; outputLoops = 0
; outputInvertX = false
; outputInvertY = false
; sliceDetectThin = off
; sliceMinHeight = 0
; sliceAdaptive = false
; zHopDistance = 0.2
; arcTolerance = 0
; antiBacklash = 1
; ranges = []
; --- startup ---
M82
M104 S220
G1 E-1.5000 F2400 ; e-retract 1.5
;; --- layer 0 (0.250 @ 0.255) ---
G1 Z0.2550 F4800
; feature brim
G1 X12.9113 Y-14.3250
G1 E0.0000 F2400 ; e-engage 1.5
G4 P20
G1 X-12.9113 E1.0540 F1800
G1 X-14.3250 Y-12.9113 E1.1356
G1 Y12.9113 E2.1896
G1 X-12.9113 Y14.3250 E2.2712
G1 X12.9113 E3.3252
G1 X14.3250 Y12.9113 E3.4068
G1 Y-12.9113 E4.4607
G1 X12.9113 Y-14.3250 E4.5423
G1 X13.0770 Y-14.7250 F4800
G1 X-13.0770 E5.6099 F1800
G1 X-14.7250 Y-13.0770 E5.7050
G1 Y13.0770 E6.7725
G1 X-13.0770 Y14.7250 E6.8676
G1 X13.0770 E7.9351
G1 X14.7250 Y13.0770 E8.0303
G1 Y-13.0770 E9.0978
G1 X13.0770 Y-14.7250 E9.1929
G1 E7.6929 F2400 ; e-retract 1.5
G1 Z0.4550 F4800 ; z-hop start
; feature shells
G1 X0.0000 Y-10.1818
G1 Z0.2550 ; z-hop end
G1 E9.1929 F2400 ; e-engage 1.5
G4 P20
G1 X-10.1818 Y-0.0000 E9.7806 F1291
G1 X0.0000 Y10.1829 E10.3684
G1 X10.1818 Y-0.0000 E10.9561
G1 X0.0000 Y-10.1818 E11.5439
G1 X11.9172 Y-11.9250 F4800
G1 X-11.9172 E12.5167 F1745
G1 X-11.9250 Y-11.9172 E12.5171
G1 Y11.9172 E13.4900
G1 X-11.9172 Y11.9250 E13.4904
G1 X11.9172 E14.4632
G1 X11.9250 Y11.9172 E14.4637
G1 Y-11.9172 E15.4365
G1 X11.9172 Y-11.9250 E15.4370
; feature solid fill
G1 X11.6650 Y-11.0993 F4800
G1 X11.0993 Y-11.6650 E15.4778 F2100
G1 X10.5336 E15.5067
G1 X11.6650 Y-10.5336 E15.5883
G1 Y-9.9679 E15.6172
G1 X9.9679 Y-11.6650 E15.7396
G1 X9.4023 E15.7685
G1 X11.6650 Y-9.4023 E15.9317
G1 Y-8.8366 E15.9606
G1 X8.8366 Y-11.6650 E16.1647
G1 X8.2709 E16.1935
G1 X11.6650 Y-8.2709 E16.4384
G1 Y-7.7052 E16.4673
G1 X7.7052 Y-11.6650 E16.7530
G1 X7.1395 E16.7819
G1 X11.6650 Y-7.1395 E17.1084
G1 Y-6.5738 E17.1373
G1 X6.5738 Y-11.6650 E17.5046
G1 X6.0081 E17.5335
G1 X11.6650 Y-6.0081 E17.9416
G1 Y-5.4425 E17.9705
G1 X5.4425 Y-11.6650 E18.4195
G1 X4.8768 E18.4483
G1 X11.6650 Y-4.8768 E18.9381
G1 Y-4.3111 E18.9670
G1 X4.3111 Y-11.6650 E19.4976
G1 X3.7454 E19.5265
G1 X11.6650 Y-3.7454 E20.0979
G1 Y-3.1797 E20.1268
G1 X3.1797 Y-11.6650 E20.7390
G1 X2.6140 E20.7679
G1 X11.6650 Y-2.6140 E21.4209
G1 Y-2.0484 E21.4498
G1 X2.0483 Y-11.6650 E22.1437
G1 X1.4827 E22.1725
G1 X11.6650 Y-1.4827 E22.9072
G1 Y-0.9170 E22.9361
G1 X0.9170 Y-11.6650 E23.7116
G1 X0.3513 E23.7405
G1 X11.6650 Y-0.3513 E24.5568
G1 Y0.2144 E24.5856
G1 X-0.2144 Y-11.6650 E25.4428
G1 X-0.7801 E25.4716
G1 X11.6650 Y0.7801 E26.3696
G1 Y1.3458 E26.3985
G1 X10.4344 Y0.1151 E26.4873
G1 X10.1516 Y0.3980 E26.5077
G1 X11.6650 Y1.9115 E26.6169
G1 Y2.4771 E26.6457
G1 X9.8687 Y0.6809 E26.7753
G1 X9.5859 Y0.9637 E26.7957
G1 X11.6650 Y3.0428 E26.9458
G1 Y3.6085 E26.9746
G1 X9.3031 Y1.2466 E27.1450
G1 X9.0202 Y1.5294 E27.1655
G1 X11.6650 Y4.1742 E27.3563
G1 Y4.7399 E27.3851
G1 X8.7374 Y1.8123 E27.5964
G1 X8.4546 Y2.0951 E27.6168
G1 X11.6650 Y5.3056 E27.8484
G1 Y5.8712 E27.8773
G1 X8.1717 Y2.3780 E28.1293
G1 X7.8889 Y2.6609 E28.1498
G1 X11.6650 Y6.4369 E28.4222
G1 Y7.0026 E28.4511
G1 X7.6061 Y2.9437 E28.7439
G1 X7.3233 Y3.2266 E28.7644
G1 X11.6650 Y7.5683 E29.0776
G1 Y8.1340 E29.1065
G1 X7.0404 Y3.5094 E29.4402
G1 X6.7576 Y3.7923 E29.4606
G1 X11.6650 Y8.6997 E29.8147
G1 Y9.2654 E29.8435
G1 X6.4748 Y4.0751 E30.2180
G1 X6.1920 Y4.3580 E30.2384
G1 X11.6650 Y9.8310 E30.6333
G1 Y10.3967 E30.6622
G1 X5.9091 Y4.6409 E31.0775
G1 X5.6263 Y4.9237 E31.0979
G1 X11.6650 Y10.9624 E31.5336
G1 Y11.5281 E31.5625
G1 X5.3435 Y5.2066 E32.0186
G1 X5.0606 Y5.4894 E32.0390
G1 X11.2362 Y11.6650 E32.4846
G1 X10.6705 E32.5135
G1 X4.7778 Y5.7723 E32.9386
G1 X4.4950 Y6.0551 E32.9591
G1 X10.1048 Y11.6650 E33.3638
G1 X9.5392 E33.3927
G1 X4.2122 Y6.3380 E33.7770
G1 X3.9293 Y6.6208 E33.7975
G1 X8.9735 Y11.6650 E34.1614
G1 X8.4078 E34.1903
G1 X3.6465 Y6.9037 E34.5338
G1 X3.3637 Y7.1866 E34.5542
G1 X7.8421 Y11.6650 E34.8774
G1 X7.2764 E34.9062
G1 X3.0808 Y7.4694 E35.2089
G1 X2.7980 Y7.7523 E35.2294
G1 X6.7107 Y11.6650 E35.5117
G1 X6.1450 E35.5405
G1 X2.5152 Y8.0351 E35.8024
G1 X2.2323 Y8.3180 E35.8229
G1 X5.5794 Y11.6650 E36.0644
G1 X5.0137 E36.0932
G1 X1.9495 Y8.6008 E36.3143
G1 X1.6667 Y8.8837 E36.3347
G1 X4.4480 Y11.6650 E36.5354
G1 X3.8823 E36.5643
G1 X1.3839 Y9.1666 E36.7445
G1 X1.1010 Y9.4494 E36.7649
G1 X3.3166 Y11.6650 E36.9248
G1 X2.7509 E36.9537
G1 X0.8182 Y9.7323 E37.0931
G1 X0.5354 Y10.0151 E37.1135
G1 X2.1852 Y11.6650 E37.2326
G1 X1.6196 E37.2614
G1 X0.2525 Y10.2980 E37.3601
G1 E35.8601 F2400 ; e-retract 1.5
G1 Z0.4550 F4800 ; z-hop start
G1 X0.8849 Y-11.4344
G1 X-0.1152 Y-10.4344
G1 Z0.2550 ; z-hop end
G1 E37.3601 F2400 ; e-engage 1.5
G4 P20
G1 X-1.3458 Y-11.6650 E37.4489 F2100
G1 X-1.9115 E37.4777
G1 X-0.3980 Y-10.1516 E37.5869
G1 X-0.6808 Y-9.8687 E37.6073
G1 X-2.4771 Y-11.6650 E37.7369
G1 X-3.0428 E37.7658
G1 X-0.9637 Y-9.5859 E37.9158
G1 X-1.2465 Y-9.3030 E37.9362
G1 X-3.6085 Y-11.6650 E38.1066
G1 X-4.1742 E38.1355
G1 X-1.5294 Y-9.0202 E38.3263
G1 X-1.8122 Y-8.7373 E38.3468
G1 X-4.7399 Y-11.6650 E38.5580
G1 X-5.3056 E38.5869
G1 X-2.0951 Y-8.4545 E38.8185
G1 X-2.3779 Y-8.1716 E38.8389
G1 X-5.8713 Y-11.6650 E39.0910
G1 X-6.4369 E39.1198
G1 X-2.6607 Y-7.8888 E39.3923
G1 X-2.9436 Y-7.6060 E39.4127
G1 X-7.0026 Y-11.6650 E39.7056
G1 X-7.5683 E39.7344
G1 X-3.2264 Y-7.3231 E40.0477
G1 X-3.5093 Y-7.0403 E40.0681
G1 X-8.1340 Y-11.6650 E40.4018
G1 X-8.6997 E40.4307
G1 X-3.7921 Y-6.7574 E40.7848
G1 X-4.0750 Y-6.4746 E40.8052
G1 X-9.2654 Y-11.6650 E41.1797
G1 X-9.8311 E41.2086
G1 X-4.3578 Y-6.1917 E41.6035
G1 X-4.6406 Y-5.9089 E41.6239
G1 X-10.3967 Y-11.6650 E42.0392
G1 X-10.9624 E42.0681
G1 X-4.9235 Y-5.6261 E42.5038
G1 X-5.2063 Y-5.3432 E42.5242
G1 X-11.5281 Y-11.6650 E42.9804
G1 X-11.6650 Y-11.2362 E43.0033
G1 X-5.4892 Y-5.0604 E43.4489
G1 X-5.7720 Y-4.7775 E43.4693
G1 X-11.6650 Y-10.6705 E43.8945
G1 Y-10.1048 E43.9234
G1 X-6.0549 Y-4.4947 E44.3282
G1 X-6.3377 Y-4.2119 E44.3486
G1 X-11.6650 Y-9.5392 E44.7330
G1 Y-8.9735 E44.7618
G1 X-6.6205 Y-3.9290 E45.1258
G1 X-6.9034 Y-3.6462 E45.1462
G1 X-11.6650 Y-8.4078 E45.4898
G1 Y-7.8421 E45.5187
G1 X-7.1862 Y-3.3633 E45.8418
G1 X-7.4691 Y-3.0805 E45.8622
G1 X-11.6650 Y-7.2764 E46.1650
G1 Y-6.7107 E46.1938
G1 X-7.7519 Y-2.7976 E46.4762
G1 X-8.0348 Y-2.5148 E46.4966
G1 X-11.6650 Y-6.1450 E46.7585
G1 Y-5.5794 E46.7874
G1 X-8.3176 Y-2.2319 E47.0289
G1 X-8.6004 Y-1.9491 E47.0493
G1 X-11.6650 Y-5.0137 E47.2704
G1 Y-4.4480 E47.2993
G1 X-8.8833 Y-1.6663 E47.5000
G1 X-9.1661 Y-1.3834 E47.5204
G1 X-11.6650 Y-3.8823 E47.7007
G1 Y-3.3166 E47.7296
G1 X-9.4490 Y-1.1006 E47.8895
G1 X-9.7318 Y-0.8177 E47.9099
G1 X-11.6650 Y-2.7509 E48.0494
G1 Y-2.1852 E48.0782
G1 X-10.0146 Y-0.5349 E48.1973
G1 X-10.2975 Y-0.2520 E48.2177
G1 X-11.6650 Y-1.6196 E48.3164
G1 Y-1.0539 E48.3453
G1 X1.0539 Y11.6650 E49.2630
G1 X0.4882 E49.2918
G1 X-11.6650 Y-0.4882 E50.1687
G1 Y0.0775 E50.1976
G1 X-0.0775 Y11.6650 E51.0337
G1 X-0.6432 E51.0625
G1 X-11.6650 Y0.6432 E51.8578
G1 Y1.2089 E51.8867
G1 X-1.2089 Y11.6650 E52.6411
G1 X-1.7746 E52.6700
G1 X-11.6650 Y1.7746 E53.3836
G1 Y2.3402 E53.4125
G1 X-2.3402 Y11.6650 E54.0853
G1 X-2.9059 E54.1142
G1 X-11.6650 Y2.9059 E54.7462
G1 Y3.4716 E54.7750
G1 X-3.4716 Y11.6650 E55.3662
G1 X-4.0373 E55.3951
G1 X-11.6650 Y4.0373 E55.9454
G1 Y4.6030 E55.9743
G1 X-4.6030 Y11.6650 E56.4838
G1 X-5.1687 E56.5127
G1 X-11.6650 Y5.1687 E56.9814
G1 Y5.7344 E57.0103
G1 X-5.7344 Y11.6650 E57.4382
G1 X-6.3000 E57.4671
G1 X-11.6650 Y6.3000 E57.8542
G1 Y6.8657 E57.8830
G1 X-6.8657 Y11.6650 E58.2293
G1 X-7.4314 E58.2582
G1 X-11.6650 Y7.4314 E58.5637
G1 Y7.9971 E58.5925
G1 X-7.9971 Y11.6650 E58.8572
G1 X-8.5628 E58.8860
G1 X-11.6650 Y8.5628 E59.1099
G1 Y9.1285 E59.1387
G1 X-9.1285 Y11.6650 E59.3218
G1 X-9.6942 E59.3506
G1 X-11.6650 Y9.6942 E59.4928
G1 Y10.2598 E59.5217
G1 X-10.2598 Y11.6650 E59.6231
G1 X-10.8255 E59.6519
G1 X-11.6650 Y10.8255 E59.7125
G1 X-11.5281 Y11.5281 E59.7490
;; --- layer 1 (0.250 @ 0.505) ---
G1 Z0.5050 F4800
; feature shells
G1 X0.0000 Y10.1829
G1 X10.1818 Y-0.0000 E60.3368 F1982
G1 X0.0000 Y-10.1818 E60.9245
G1 X-10.1818 Y-0.0000 E61.5122
G1 X0.0000 Y10.1829 E62.1000
G1 X-11.9172 Y12.1750 F4800
G1 X11.9172 E63.0728 F2923
G1 X12.1750 Y11.9172 E63.0877
G1 Y-11.9172 E64.0605
G1 X11.9172 Y-12.1750 E64.0754
G1 X-11.9172 E65.0482
G1 X-12.1750 Y-11.9172 E65.0631
G1 Y11.9172 E66.0360
G1 X-11.9172 Y12.1750 E66.0508
G1 E64.5508 F2400 ; e-retract 1.5
G1 Z0.7050 F4800 ; z-hop start
; feature solid fill
G1 X-10.3493 Y-12.9150
G1 X-11.3493 Y-11.9150
G1 Z0.5050 ; z-hop end
G1 E66.0508 F2400 ; e-engage 1.5
G4 P20
G1 X-11.9150 Y-11.3493 E66.0917 F3000
G1 Y-10.7836 E66.1205
G1 X-10.7836 Y-11.9150 E66.2022
G1 X-10.2179 E66.2310
G1 X-11.9150 Y-10.2179 E66.3535
G1 Y-9.6523 E66.3823
G1 X-9.6523 Y-11.9150 E66.5456
G1 X-9.0866 E66.5744
G1 X-11.9150 Y-9.0866 E66.7785
G1 Y-8.5209 E66.8074
G1 X-8.5209 Y-11.9150 E67.0523
G1 X-7.9552 E67.0812
G1 X-11.9150 Y-7.9552 E67.3669
G1 Y-7.3895 E67.3957
G1 X-7.3895 Y-11.9150 E67.7223
G1 X-6.8238 E67.7511
G1 X-11.9150 Y-6.8238 E68.1185
G1 Y-6.2581 E68.1473
G1 X-6.2581 Y-11.9150 E68.5555
G1 X-5.6925 E68.5844
G1 X-11.9150 Y-5.6925 E69.0333
G1 Y-5.1268 E69.0622
G1 X-5.1268 Y-11.9150 E69.5520
G1 X-4.5611 E69.5809
G1 X-11.9150 Y-4.5611 E70.1115
G1 Y-3.9954 E70.1403
G1 X-3.9954 Y-11.9150 E70.7118
G1 X-3.4297 E70.7406
G1 X-11.9150 Y-3.4297 E71.3529
G1 Y-2.8640 E71.3817
G1 X-2.8640 Y-11.9150 E72.0348
G1 X-2.2983 E72.0636
G1 X-11.9150 Y-2.2984 E72.7575
G1 Y-1.7327 E72.7864
G1 X-1.7327 Y-11.9150 E73.5211
G1 X-1.1670 E73.5499
G1 X-11.9150 Y-1.1670 E74.3254
G1 Y-0.6013 E74.3543
G1 X-0.6013 Y-11.9150 E75.1706
G1 X-0.0356 E75.1995
G1 X-11.9150 Y-0.0356 E76.0566
G1 Y0.5301 E76.0855
G1 X0.5301 Y-11.9150 E76.9835
G1 X1.0958 E77.0123
G1 X-11.9150 Y1.0958 E77.9511
G1 Y1.6615 E77.9800
G1 X-10.4015 Y0.1480 E78.0892
G1 X-10.1187 Y0.4308 E78.1096
G1 X-11.9150 Y2.2271 E78.2392
G1 Y2.7928 E78.2680
G1 X-9.8359 Y0.7137 E78.4181
G1 X-9.5531 Y0.9966 E78.4385
G1 X-11.9150 Y3.3585 E78.6089
G1 Y3.9242 E78.6378
G1 X-9.2702 Y1.2794 E78.8286
G1 X-8.9874 Y1.5623 E78.8490
G1 X-11.9150 Y4.4899 E79.0602
G1 Y5.0556 E79.0891
G1 X-8.7046 Y1.8451 E79.3207
G1 X-8.4217 Y2.1280 E79.3411
G1 X-11.9150 Y5.6212 E79.5932
G1 Y6.1869 E79.6221
G1 X-8.1389 Y2.4108 E79.8945
G1 X-7.8561 Y2.6937 E79.9149
G1 X-11.9150 Y6.7526 E80.2078
G1 Y7.3183 E80.2366
G1 X-7.5732 Y2.9766 E80.5499
G1 X-7.2904 Y3.2594 E80.5703
G1 X-11.9150 Y7.8840 E80.9040
G1 Y8.4497 E80.9329
G1 X-7.0076 Y3.5423 E81.2870
G1 X-6.7248 Y3.8251 E81.3074
G1 X-11.9150 Y9.0154 E81.6819
G1 Y9.5810 E81.7107
G1 X-6.4419 Y4.1080 E82.1056
G1 X-6.1591 Y4.3908 E82.1260
G1 X-11.9150 Y10.1467 E82.5413
G1 Y10.7124 E82.5702
G1 X-5.8763 Y4.6737 E83.0059
G1 X-5.5934 Y4.9566 E83.0263
G1 X-11.9150 Y11.2781 E83.4825
G1 X-11.8978 Y11.8266 E83.5105
G1 X-5.3106 Y5.2394 E83.9857
G1 X-5.0278 Y5.5223 E84.0062
G1 X-11.4205 Y11.9150 E84.4674
G1 X-10.8548 E84.4963
G1 X-4.7450 Y5.8051 E84.9371
G1 X-4.4621 Y6.0880 E84.9575
G1 X-10.2892 Y11.9150 E85.3780
G1 X-9.7235 E85.4068
G1 X-4.1793 Y6.3708 E85.8069
G1 X-3.8965 Y6.6537 E85.8273
G1 X-9.1578 Y11.9150 E86.2069
G1 X-8.5921 E86.2358
G1 X-3.6136 Y6.9366 E86.5950
G1 X-3.3308 Y7.2194 E86.6154
G1 X-8.0264 Y11.9150 E86.9542
G1 X-7.4607 E86.9830
G1 X-3.0480 Y7.5023 E87.3014
G1 X-2.7652 Y7.7851 E87.3219
G1 X-6.8950 Y11.9150 E87.6198
G1 X-6.3294 E87.6487
G1 X-2.4823 Y8.0680 E87.9263
G1 X-2.1995 Y8.3508 E87.9467
G1 X-5.7637 Y11.9150 E88.2039
G1 X-5.1980 E88.2327
G1 X-1.9167 Y8.6337 E88.4695
G1 X-1.6339 Y8.9166 E88.4899
G1 X-4.6323 Y11.9150 E88.7062
G1 X-4.0666 E88.7351
G1 X-1.3510 Y9.1994 E88.9310
G1 X-1.0682 Y9.4823 E88.9514
G1 X-3.5009 Y11.9150 E89.1270
G1 X-2.9352 E89.1558
G1 X-0.7854 Y9.7651 E89.3110
G1 X-0.5025 Y10.0480 E89.3314
G1 X-2.3696 Y11.9150 E89.4661
G1 X-1.8039 E89.4949
G1 X-0.2197 Y10.3308 E89.6092
G1 E88.1092 F2400 ; e-retract 1.5
G1 Z0.7050 F4800 ; z-hop start
G1 X1.1480 Y-11.4015
G1 X0.1480 Y-10.4015
G1 Z0.5050 ; z-hop end
G1 E89.6092 F2400 ; e-engage 1.5
G4 P20
G1 X1.6615 Y-11.9150 E89.7184 F3000
G1 X2.2271 E89.7473
G1 X0.4308 Y-10.1187 E89.8769
G1 X0.7137 Y-9.8359 E89.8973
G1 X2.7928 Y-11.9150 E90.0473
G1 X3.3585 E90.0762
G1 X0.9965 Y-9.5530 E90.2466
G1 X1.2794 Y-9.2702 E90.2670
G1 X3.9242 Y-11.9150 E90.4579
G1 X4.4899 E90.4867
G1 X1.5622 Y-8.9873 E90.6980
G1 X1.8451 Y-8.7045 E90.7184
G1 X5.0556 Y-11.9150 E90.9500
G1 X5.6213 E90.9789
G1 X2.1279 Y-8.4216 E91.2309
G1 X2.4107 Y-8.1388 E91.2514
G1 X6.1869 Y-11.9150 E91.5238
G1 X6.7526 E91.5527
G1 X2.6936 Y-7.8560 E91.8456
G1 X2.9764 Y-7.5731 E91.8660
G1 X7.3183 Y-11.9150 E92.1793
G1 X7.8840 E92.2081
G1 X3.2593 Y-7.2903 E92.5418
G1 X3.5421 Y-7.0074 E92.5622
G1 X8.4497 Y-11.9150 E92.9163
G1 X9.0154 E92.9452
G1 X3.8249 Y-6.7246 E93.3197
G1 X4.1078 Y-6.4417 E93.3401
G1 X9.5811 Y-11.9150 E93.7350
G1 X10.1467 E93.7639
G1 X4.3906 Y-6.1589 E94.1792
G1 X4.6735 Y-5.8761 E94.1996
G1 X10.7124 Y-11.9150 E94.6353
G1 X11.2781 E94.6642
G1 X4.9563 Y-5.5932 E95.1203
G1 X5.2392 Y-5.3104 E95.1407
G1 X11.8266 Y-11.8978 E95.6160
G1 X11.9150 Y-11.4205 E95.6408
G1 X5.5220 Y-5.0275 E96.1021
G1 X5.8049 Y-4.7447 E96.1225
G1 X11.9150 Y-10.8548 E96.5634
G1 Y-10.2892 E96.5922
G1 X6.0877 Y-4.4619 E97.0127
G1 X6.3705 Y-4.1790 E97.0331
G1 X11.9150 Y-9.7235 E97.4332
G1 Y-9.1578 E97.4620
G1 X6.6534 Y-3.8962 E97.8417
G1 X6.9362 Y-3.6133 E97.8621
G1 X11.9150 Y-8.5921 E98.2213
G1 Y-8.0264 E98.2502
G1 X7.2191 Y-3.3305 E98.5890
G1 X7.5019 Y-3.0476 E98.6094
G1 X11.9150 Y-7.4607 E98.9278
G1 Y-6.8950 E98.9567
G1 X7.7847 Y-2.7648 E99.2547
G1 X8.0676 Y-2.4819 E99.2751
G1 X11.9150 Y-6.3294 E99.5527
G1 Y-5.7637 E99.5816
G1 X8.3504 Y-2.1991 E99.8388
G1 X8.6333 Y-1.9163 E99.8592
G1 X11.9150 Y-5.1980 E100.0960
G1 Y-4.6323 E100.1248
G1 X8.9161 Y-1.6334 E100.3412
G1 X9.1990 Y-1.3506 E100.3616
G1 X11.9150 Y-4.0666 E100.5576
G1 Y-3.5009 E100.5865
G1 X9.4818 Y-1.0677 E100.7620
G1 X9.7646 Y-0.7849 E100.7824
G1 X11.9150 Y-2.9352 E100.9376
G1 Y-2.3696 E100.9664
G1 X10.0475 Y-0.5020 E101.1012
G1 X10.3303 Y-0.2192 E101.1216
G1 X11.9150 Y-1.8039 E101.2359
G1 Y-1.2382 E101.2648
G1 X-1.2382 Y11.9150 E102.2139
G1 X-0.6725 E102.2427
